;START_OF_HEADER
;HEADER_VERSION:0.1
;FLAVOR:Griffin
;GENERATOR.NAME:Cura_SteamEngine
;GENERATOR.VERSION:4.13.1
;GENERATOR.BUILD_DATE:2022-01-28
;TARGET_MACHINE.NAME:Ultimaker S5
;EXTRUDER_TRAIN.0.INITIAL_TEMPERATURE:200
;EXTRUDER_TRAIN.0.MATERIAL.VOLUME_USED:3702
;EXTRUDER_TRAIN.0.MATERIAL.GUID:506c9f0d-e3aa-4bd4-b2d2-23e2425b1aa9
;EXTRUDER_TRAIN.0.NOZZLE.DIAMETER:0.4
;EXTRUDER_TRAIN.0.NOZZLE.NAME:AA 0.4
;BUILD_PLATE.TYPE:glass
;BUILD_PLATE.INITIAL_TEMPERATURE:60
;BUILD_VOLUME.TEMPERATURE:28
;PRINT.TIME:4010
;PRINT.GROUPS:1
;PRINT.SIZE.MIN.X:114.444
;PRINT.SIZE.MIN.Y:112.54
;PRINT.SIZE.MIN.Z:0.2
;PRINT.SIZE.MAX.X:220.941
;PRINT.SIZE.MAX.Y:127.409
;PRINT.SIZE.MAX.Z:10.5
;END_OF_HEADER
;Generated with Cura_SteamEngine 4.13.1
T0
M82 ;absolute extrusion mode

G92 E0
M109 S200
G280 S1
G0 Z20.001
G1 F1500 E-6.5
;LAYER_COUNT:105
;LAYER:0
M107
M204 S625
M205 X50 Y50
G1 F600 Z2.2
G0 F1285.7 X196.764 Y124.368 Z2.2
M204 S500
M205 X20 Y20
;TYPE:SKIRT
G1 F600 Z0.2
G1 F1500 E0
G1 F600 X196.259 Y124.914 E0.00979
G1 X195.699 Y125.404 E0.01959
G1 X195.089 Y125.831 E0.0294
G1 X194.436 Y126.189 E0.0392
G1 X193.75 Y126.476 E0.04899
G1 X193.036 Y126.688 E0.0588
G1 X192.303 Y126.821 E0.06861
G1 X189.591 Y127.167 E0.10461
G1 X188.522 Y127.301 E0.11879
G1 X187.72 Y127.355 E0.12938
G1 X181.53 Y127.409 E0.21089
G1 X181.269 Y127.406 E0.21432
G1 X175.078 Y127.226 E0.29588
G1 X174.336 Y127.165 E0.30568
G1 X173.605 Y127.024 E0.31548
G1 X172.893 Y126.805 E0.32529
G1 X172.209 Y126.512 E0.33509
G1 X171.561 Y126.147 E0.34488
G1 X170.955 Y125.714 E0.35469
G1 X170.399 Y125.219 E0.36449
G1 X169.9 Y124.668 E0.37428
G1 X169.462 Y124.066 E0.38408
G1 X169.092 Y123.42 E0.39389
G1 X168.793 Y122.738 E0.40369
G1 X168.568 Y122.029 E0.41349
G1 X168.422 Y121.299 E0.42329
G1 X168.341 Y120.224 E0.43748
G1 X168.356 Y119.325 E0.44932
G1 X168.429 Y118.585 E0.45911
G1 X168.58 Y117.856 E0.46892
G1 X168.81 Y117.148 E0.47872
G1 X169.113 Y116.468 E0.48852
G1 X169.488 Y115.825 E0.49832
G1 X169.93 Y115.226 E0.50813
G1 X170.433 Y114.678 E0.51792
G1 X170.993 Y114.187 E0.52773
G1 X171.601 Y113.758 E0.53752
G1 X172.252 Y113.398 E0.54732
G1 X172.939 Y113.109 E0.55713
G1 X173.652 Y112.896 E0.56693
G1 X174.383 Y112.76 E0.57672
G1 X175.098 Y112.704 E0.58617
G1 X181.289 Y112.542 E0.66771
G1 X181.522 Y112.54 E0.67078
G1 X186.363 Y112.576 E0.73453
G1 X187.722 Y112.588 E0.75242
G1 X188.445 Y112.633 E0.76196
G1 X192.211 Y113.062 E0.81187
G1 X192.945 Y113.185 E0.82167
G1 X193.662 Y113.387 E0.83148
G1 X194.352 Y113.665 E0.84127
G1 X195.009 Y114.015 E0.85107
G1 X195.625 Y114.433 E0.86088
G1 X196.192 Y114.915 E0.87068
G1 X196.704 Y115.455 E0.88047
G1 X197.155 Y116.047 E0.89027
G1 X197.541 Y116.684 E0.90008
G1 X197.855 Y117.358 E0.90987
G1 X198.096 Y118.063 E0.91968
G1 X198.26 Y118.789 E0.92948
G1 X198.344 Y119.528 E0.93928
G1 X198.349 Y120.273 E0.94909
G1 X198.274 Y121.013 E0.95888
G1 X198.121 Y121.741 E0.96868
G1 X197.89 Y122.449 E0.97848
G1 X197.584 Y123.128 E0.98829
G1 X197.207 Y123.77 E0.99809
G1 X196.764 Y124.368 E1.00789
M204 S625
M205 X50 Y50
G0 F1285.7 X196.613 Y123.882
M204 S500
M205 X20 Y20
G1 F600 X196.146 Y124.432 E1.01739
G1 X195.62 Y124.926 E1.02689
G1 X195.044 Y125.36 E1.03639
G1 X194.423 Y125.727 E1.04589
G1 X193.765 Y126.023 E1.05539
G1 X193.078 Y126.244 E1.06489
G1 X192.25 Y126.405 E1.076
G1 X189.539 Y126.75 E1.11198
G1 X188.47 Y126.884 E1.12617
G1 X187.717 Y126.935 E1.13611
G1 X181.527 Y126.989 E1.21761
G1 X181.281 Y126.986 E1.22085
G1 X175.09 Y126.806 E1.30241
G1 X174.371 Y126.745 E1.31191
G1 X173.663 Y126.605 E1.32141
G1 X172.976 Y126.388 E1.3309
G1 X172.316 Y126.096 E1.3404
G1 X171.693 Y125.732 E1.3499
G1 X171.114 Y125.302 E1.3594
G1 X170.586 Y124.81 E1.3689
G1 X170.115 Y124.263 E1.37841
G1 X169.708 Y123.668 E1.3879
G1 X169.37 Y123.031 E1.39739
G1 X169.104 Y122.36 E1.4069
G1 X168.914 Y121.664 E1.4164
G1 X168.774 Y120.558 E1.43108
G1 X168.761 Y119.66 E1.4429
G1 X168.847 Y118.626 E1.45657
G1 X168.998 Y117.921 E1.46606
G1 X169.226 Y117.236 E1.47556
G1 X169.528 Y116.581 E1.48506
G1 X169.901 Y115.964 E1.49456
G1 X170.34 Y115.391 E1.50406
G1 X170.839 Y114.871 E1.51355
G1 X171.394 Y114.409 E1.52306
G1 X171.995 Y114.011 E1.53255
G1 X172.637 Y113.682 E1.54205
G1 X173.312 Y113.426 E1.55155
G1 X174.011 Y113.247 E1.56106
G1 X175.109 Y113.124 E1.5756
G1 X181.3 Y112.962 E1.65715
G1 X181.519 Y112.96 E1.66003
G1 X186.359 Y112.996 E1.72377
G1 X187.718 Y113.008 E1.74166
G1 X188.398 Y113.05 E1.75063
G1 X192.164 Y113.479 E1.80054
G1 X192.875 Y113.6 E1.81004
G1 X193.568 Y113.799 E1.81953
G1 X194.235 Y114.074 E1.82903
G1 X194.868 Y114.421 E1.83854
G1 X195.458 Y114.835 E1.84803
G1 X195.999 Y115.313 E1.85753
G1 X196.484 Y115.847 E1.86703
G1 X196.906 Y116.432 E1.87653
G1 X197.262 Y117.06 E1.88604
G1 X197.545 Y117.723 E1.89553
G1 X197.754 Y118.413 E1.90502
G1 X197.885 Y119.123 E1.91453
G1 X197.936 Y119.842 E1.92402
G1 X197.908 Y120.563 E1.93352
G1 X197.8 Y121.276 E1.94301
G1 X197.614 Y121.973 E1.95251
G1 X197.351 Y122.645 E1.96202
G1 X197.016 Y123.284 E1.97152
G1 X196.613 Y123.882 E1.98101
M204 S625
M205 X50 Y50
G0 F1285.7 X196.003 Y123.965
M204 S500
M205 X20 Y20
G1 F600 X195.513 Y124.462 E1.9902
G1 X194.97 Y124.9 E1.99939
G1 X194.38 Y125.273 E2.00858
G1 X193.752 Y125.576 E2.01776
G1 X193.093 Y125.805 E2.02695
G1 X192.197 Y125.988 E2.03899
G1 X189.486 Y126.334 E2.07497
G1 X188.417 Y126.468 E2.08916
G1 X187.713 Y126.515 E2.09845
G1 X181.523 Y126.569 E2.17996
G1 X181.293 Y126.566 E2.18299
G1 X175.102 Y126.386 E2.26454
G1 X174.407 Y126.326 E2.27373
G1 X173.723 Y126.187 E2.28292
G1 X173.06 Y125.97 E2.2921
G1 X172.426 Y125.679 E2.30129
G1 X171.829 Y125.318 E2.31048
G1 X171.278 Y124.89 E2.31966
G1 X170.779 Y124.402 E2.32885
G1 X170.339 Y123.861 E2.33803
G1 X169.964 Y123.272 E2.34723
G1 X169.659 Y122.645 E2.35641
G1 X169.428 Y121.987 E2.36559
G1 X169.273 Y121.306 E2.37479
G1 X169.18 Y120.191 E2.38952
G1 X169.195 Y119.362 E2.40044
G1 X169.266 Y118.668 E2.40962
G1 X169.415 Y117.987 E2.4188
G1 X169.642 Y117.327 E2.42799
G1 X169.943 Y116.697 E2.43719
G1 X170.313 Y116.106 E2.44637
G1 X170.749 Y115.561 E2.45556
G1 X171.245 Y115.07 E2.46475
G1 X171.793 Y114.639 E2.47393
G1 X172.387 Y114.273 E2.48312
G1 X173.019 Y113.977 E2.4923
G1 X173.68 Y113.756 E2.50148
G1 X174.363 Y113.611 E2.51068
G1 X175.12 Y113.544 E2.52068
G1 X181.311 Y113.382 E2.60223
G1 X181.515 Y113.38 E2.60492
G1 X186.356 Y113.416 E2.66866
G1 X187.715 Y113.428 E2.68656
G1 X188.35 Y113.467 E2.69493
G1 X192.116 Y113.896 E2.74484
G1 X192.804 Y114.015 E2.75404
G1 X193.473 Y114.211 E2.76322
G1 X194.116 Y114.483 E2.77241
G1 X194.723 Y114.826 E2.78159
G1 X195.287 Y115.237 E2.79078
G1 X195.801 Y115.709 E2.79997
G1 X196.257 Y116.237 E2.80915
G1 X196.649 Y116.814 E2.81834
G1 X196.973 Y117.432 E2.82753
G1 X197.225 Y118.083 E2.83672
G1 X197.4 Y118.758 E2.8459
G1 X197.497 Y119.449 E2.85509
G1 X197.514 Y120.147 E2.86428
G1 X197.451 Y120.842 E2.87347
G1 X197.309 Y121.525 E2.88266
G1 X197.09 Y122.187 E2.89184
G1 X196.797 Y122.82 E2.90102
G1 X196.433 Y123.416 E2.91022
G1 X196.003 Y123.965 E2.9194
M204 S625
M205 X50 Y50
G0 F1285.7 X195.832 Y123.517
M204 S500
M205 X20 Y20
G1 F600 X195.378 Y124.014 E2.92826
G1 X194.868 Y124.453 E2.93712
G1 X194.31 Y124.829 E2.94598
G1 X193.711 Y125.137 E2.95485
G1 X193.08 Y125.371 E2.96371
G1 X192.144 Y125.571 E2.97632
G1 X189.434 Y125.917 E3.01229
G1 X188.365 Y126.051 E3.02648
G1 X187.709 Y126.095 E3.03513
G1 X181.519 Y126.149 E3.11664
G1 X181.305 Y126.147 E3.11946
G1 X175.114 Y125.967 E3.20101
G1 X174.444 Y125.907 E3.20987
G1 X173.785 Y125.769 E3.21874
G1 X173.147 Y125.553 E3.22761
G1 X172.539 Y125.263 E3.23648
G1 X171.97 Y124.904 E3.24533
G1 X171.448 Y124.479 E3.2542
G1 X170.98 Y123.995 E3.26306
G1 X170.572 Y123.46 E3.27192
G1 X170.23 Y122.88 E3.28079
G1 X169.96 Y122.263 E3.28966
G1 X169.765 Y121.619 E3.29852
G1 X169.647 Y120.956 E3.30738
G1 X169.601 Y119.697 E3.32397
G1 X169.684 Y118.711 E3.337
G1 X169.833 Y118.055 E3.34586
G1 X170.058 Y117.42 E3.35473
G1 X170.357 Y116.817 E3.36359
G1 X170.725 Y116.254 E3.37245
G1 X171.158 Y115.738 E3.38132
G1 X171.648 Y115.277 E3.39018
G1 X172.19 Y114.877 E3.39905
G1 X172.775 Y114.545 E3.4079
G1 X173.396 Y114.284 E3.41677
G1 X174.043 Y114.098 E3.42564
G1 X175.131 Y113.964 E3.44007
G1 X181.322 Y113.802 E3.52162
G1 X181.512 Y113.8 E3.52412
G1 X186.352 Y113.836 E3.58785
G1 X187.711 Y113.848 E3.60575
G1 X188.303 Y113.884 E3.61356
G1 X192.069 Y114.313 E3.66347
G1 X192.732 Y114.429 E3.67233
G1 X193.377 Y114.623 E3.6812
G1 X193.994 Y114.891 E3.69006
G1 X194.575 Y115.231 E3.69892
G1 X195.112 Y115.638 E3.70779
G1 X195.597 Y116.105 E3.71666
G1 X196.023 Y116.626 E3.72552
G1 X196.384 Y117.194 E3.73438
G1 X196.675 Y117.801 E3.74324
G1 X196.893 Y118.438 E3.75211
G1 X197.033 Y119.096 E3.76097
G1 X197.094 Y119.767 E3.76984
G1 X197.076 Y120.44 E3.7787
G1 X196.977 Y121.106 E3.78757
G1 X196.801 Y121.756 E3.79644
G1 X196.549 Y122.38 E3.8053
G1 X196.224 Y122.97 E3.81417
G1 X195.832 Y123.517 E3.82303
M204 S625
M205 X50 Y50
G0 F1285.7 X195.633 Y123.089
M204 S500
M205 X20 Y20
G1 F600 X195.214 Y123.583 E3.83156
G1 X194.738 Y124.021 E3.84008
G1 X194.211 Y124.398 E3.84861
G1 X193.642 Y124.707 E3.85713
G1 X193.039 Y124.944 E3.86567
G1 X192.091 Y125.155 E3.87845
G1 X189.382 Y125.5 E3.91441
G1 X188.313 Y125.634 E3.9286
G1 X187.706 Y125.675 E3.93661
G1 X181.516 Y125.729 E4.01812
G1 X181.317 Y125.727 E4.02074
G1 X175.126 Y125.547 E4.10229
G1 X174.481 Y125.488 E4.11082
G1 X173.848 Y125.35 E4.11935
G1 X173.237 Y125.136 E4.12788
G1 X172.657 Y124.847 E4.13641
G1 X172.117 Y124.49 E4.14493
G1 X171.625 Y124.069 E4.15346
G1 X171.188 Y123.59 E4.162
G1 X170.814 Y123.061 E4.17053
G1 X170.508 Y122.49 E4.17906
G1 X170.275 Y121.886 E4.18758
G1 X170.117 Y121.258 E4.19611
G1 X170.019 Y120.157 E4.21066
G1 X170.034 Y119.4 E4.22063
G1 X170.103 Y118.756 E4.22916
G1 X170.25 Y118.125 E4.23769
G1 X170.474 Y117.517 E4.24622
G1 X170.771 Y116.941 E4.25476
G1 X171.137 Y116.407 E4.26328
G1 X171.565 Y115.921 E4.27181
G1 X172.051 Y115.492 E4.28034
G1 X172.585 Y115.126 E4.28887
G1 X173.161 Y114.828 E4.29741
G1 X173.768 Y114.604 E4.30593
G1 X174.399 Y114.456 E4.31446
G1 X175.142 Y114.384 E4.32429
G1 X181.333 Y114.222 E4.40584
G1 X181.509 Y114.22 E4.40816
G1 X186.348 Y114.256 E4.47187
G1 X187.707 Y114.268 E4.48977
G1 X188.255 Y114.302 E4.497
G1 X192.021 Y114.731 E4.54691
G1 X192.659 Y114.844 E4.55544
G1 X193.278 Y115.034 E4.56397
G1 X193.869 Y115.3 E4.5725
G1 X194.423 Y115.636 E4.58103
G1 X194.931 Y116.037 E4.58955
G1 X195.386 Y116.499 E4.59809
G1 X195.78 Y117.012 E4.60661
G1 X196.109 Y117.571 E4.61515
G1 X196.365 Y118.165 E4.62367
G1 X196.547 Y118.787 E4.6322
G1 X196.651 Y119.427 E4.64074
G1 X196.675 Y120.074 E4.64926
G1 X196.62 Y120.719 E4.65779
G1 X196.485 Y121.353 E4.66632
G1 X196.274 Y121.965 E4.67485
G1 X195.988 Y122.547 E4.68338
G1 X195.633 Y123.089 E4.69192
M204 S625
M205 X50 Y50
G0 F1285.7 X195.023 Y123.171
M204 S500
M205 X20 Y20
G1 F600 X194.58 Y123.606 E4.70009
G1 X194.084 Y123.981 E4.70828
G1 X193.544 Y124.288 E4.71646
G1 X192.969 Y124.524 E4.72464
G1 X192.038 Y124.738 E4.73722
G1 X189.33 Y125.083 E4.77317
G1 X188.261 Y125.217 E4.78735
G1 X187.702 Y125.255 E4.79473
G1 X181.512 Y125.309 E4.87624
G1 X181.33 Y125.307 E4.87864
G1 X175.139 Y125.127 E4.96019
G1 X174.52 Y125.069 E4.96838
G1 X173.914 Y124.932 E4.97656
G1 X173.331 Y124.719 E4.98473
G1 X172.779 Y124.432 E4.99292
G1 X172.27 Y124.077 E5.00109
G1 X171.81 Y123.659 E5.00928
G1 X171.407 Y123.186 E5.01746
G1 X171.068 Y122.665 E5.02564
G1 X170.799 Y122.105 E5.03382
G1 X170.605 Y121.515 E5.042
G1 X170.487 Y120.905 E5.05018
G1 X170.44 Y119.734 E5.06561
G1 X170.521 Y118.801 E5.07795
G1 X170.667 Y118.197 E5.08613
G1 X170.89 Y117.617 E5.09431
G1 X171.185 Y117.07 E5.10249
G1 X171.547 Y116.565 E5.11067
G1 X171.972 Y116.112 E5.11885
G1 X172.451 Y115.716 E5.12704
G1 X172.977 Y115.386 E5.13521
G1 X173.541 Y115.125 E5.1434
G1 X174.134 Y114.94 E5.15158
G1 X174.746 Y114.832 E5.15976
G1 X175.153 Y114.804 E5.16513
G1 X181.344 Y114.642 E5.24668
G1 X181.506 Y114.64 E5.24881
G1 X186.345 Y114.676 E5.31253
G1 X187.704 Y114.688 E5.33042
G1 X188.208 Y114.719 E5.33707
G1 X191.974 Y115.148 E5.38698
G1 X192.585 Y115.258 E5.39516
G1 X193.177 Y115.445 E5.40333
G1 X193.741 Y115.707 E5.41152
G1 X194.266 Y116.039 E5.4197
G1 X194.744 Y116.436 E5.42788
G1 X195.167 Y116.891 E5.43606
G1 X195.529 Y117.396 E5.44424
G1 X195.822 Y117.944 E5.45243
G1 X196.043 Y118.525 E5.46061
G1 X196.187 Y119.129 E5.46879
G1 X196.253 Y119.747 E5.47697
G1 X196.239 Y120.368 E5.48515
G1 X196.145 Y120.982 E5.49333
G1 X195.973 Y121.579 E5.50151
G1 X195.726 Y122.149 E5.50969
G1 X195.407 Y122.683 E5.51788
G1 X195.023 Y123.171 E5.52606
M204 S625
M205 X50 Y50
G0 F1285.7 X194.806 Y122.781
M204 S500
M205 X20 Y20
G1 F600 X194.394 Y123.209 E5.53388
G1 X193.929 Y123.578 E5.54169
G1 X193.419 Y123.882 E5.54951
G1 X192.872 Y124.113 E5.55733
G1 X191.985 Y124.322 E5.56933
G1 X189.278 Y124.667 E5.60526
G1 X188.209 Y124.801 E5.61945
G1 X187.698 Y124.835 E5.62619
G1 X181.508 Y124.889 E5.7077
G1 X181.342 Y124.887 E5.70989
G1 X175.151 Y124.707 E5.79144
G1 X174.56 Y124.65 E5.79926
G1 X173.982 Y124.514 E5.80708
G1 X173.428 Y124.302 E5.81489
G1 X172.907 Y124.017 E5.82271
G1 X172.429 Y123.664 E5.83053
G1 X172.003 Y123.251 E5.83835
G1 X171.636 Y122.784 E5.84617
G1 X171.335 Y122.273 E5.85397
G1 X171.106 Y121.725 E5.8618
G1 X170.952 Y121.152 E5.86961
G1 X170.859 Y120.124 E5.8832
G1 X170.873 Y119.437 E5.89225
G1 X170.939 Y118.847 E5.90006
G1 X171.084 Y118.271 E5.90789
G1 X171.305 Y117.72 E5.9157
G1 X171.598 Y117.204 E5.92352
G1 X171.957 Y116.731 E5.93133
G1 X172.377 Y116.311 E5.93916
G1 X172.849 Y115.952 E5.94696
G1 X173.365 Y115.659 E5.95478
G1 X173.916 Y115.438 E5.96259
G1 X174.492 Y115.293 E5.97042
G1 X175.164 Y115.224 E5.97931
G1 X181.355 Y115.062 E6.06086
G1 X181.503 Y115.06 E6.06281
G1 X186.341 Y115.096 E6.12651
G1 X187.7 Y115.108 E6.14441
G1 X188.16 Y115.136 E6.15048
G1 X191.926 Y115.565 E6.20038
G1 X192.51 Y115.672 E6.2082
G1 X193.074 Y115.856 E6.21601
G1 X193.609 Y116.115 E6.22384
G1 X194.104 Y116.442 E6.23165
G1 X194.55 Y116.834 E6.23947
G1 X194.94 Y117.281 E6.24728
G1 X195.266 Y117.777 E6.2551
G1 X195.523 Y118.313 E6.26292
G1 X195.705 Y118.878 E6.27074
G1 X195.81 Y119.462 E6.27855
G1 X195.836 Y120.055 E6.28637
G1 X195.781 Y120.646 E6.29419
G1 X195.648 Y121.224 E6.30199
G1 X195.438 Y121.78 E6.30982
G1 X195.156 Y122.302 E6.31763
G1 X194.806 Y122.781 E6.32544
M204 S625
M205 X50 Y50
G0 F1285.7 X194.562 Y122.415
M204 S500
M205 X20 Y20
G1 F600 X194.182 Y122.833 E6.33288
G1 X193.747 Y123.193 E6.34032
G1 X193.265 Y123.488 E6.34776
G1 X192.747 Y123.712 E6.35519
G1 X191.932 Y123.905 E6.36622
G1 X189.225 Y124.25 E6.40215
G1 X188.156 Y124.384 E6.41634
G1 X187.695 Y124.415 E6.42242
G1 X181.505 Y124.469 E6.50393
G1 X181.354 Y124.467 E6.50592
G1 X175.163 Y124.287 E6.58747
G1 X174.601 Y124.231 E6.59491
G1 X174.053 Y124.096 E6.60234
G1 X173.529 Y123.885 E6.60978
G1 X173.041 Y123.602 E6.61721
G1 X172.597 Y123.253 E6.62464
G1 X172.207 Y122.845 E6.63207
G1 X171.878 Y122.386 E6.63951
G1 X171.618 Y121.885 E6.64694
G1 X171.43 Y121.352 E6.65438
G1 X171.292 Y120.458 E6.6663
G1 X171.293 Y119.455 E6.6795
G1 X171.358 Y118.895 E6.68693
G1 X171.501 Y118.348 E6.69437
G1 X171.72 Y117.828 E6.7018
G1 X172.01 Y117.344 E6.70923
G1 X172.366 Y116.905 E6.71667
G1 X172.78 Y116.521 E6.72411
G1 X173.244 Y116.2 E6.73154
G1 X173.749 Y115.947 E6.73897
G1 X174.285 Y115.768 E6.74641
G1 X175.175 Y115.643 E6.75825
G1 X181.366 Y115.481 E6.8398
G1 X181.5 Y115.48 E6.84156
G1 X186.337 Y115.516 E6.90525
G1 X187.696 Y115.528 E6.92315
G1 X188.113 Y115.554 E6.92865
G1 X191.879 Y115.983 E6.97856
G1 X192.434 Y116.086 E6.98599
G1 X192.969 Y116.267 E6.99343
G1 X193.473 Y116.521 E7.00086
G1 X193.936 Y116.844 E7.00829
G1 X194.349 Y117.23 E7.01574
G1 X194.703 Y117.669 E7.02316
G1 X194.992 Y118.154 E7.0306
G1 X195.209 Y118.675 E7.03803
G1 X195.351 Y119.222 E7.04547
G1 X195.414 Y119.783 E7.0529
G1 X195.397 Y120.347 E7.06033
G1 X195.301 Y120.904 E7.06777
G1 X195.127 Y121.441 E7.07521
G1 X194.879 Y121.948 E7.08264
G1 X194.562 Y122.415 E7.09007
M204 S625
M205 X50 Y50
G0 F1285.7 X194.293 Y122.076
M204 S500
